X: 3969
T: Blacksmith Courted Me
R: waltz
M: 3/4
K: Cmajor
[d3/2A3/2][d/A/][dA] [a2A2][gA]|[fA][d2A2] [d3/2A3/2][d/A/][dA]|[d2c2][dA] [fA][d2A2]|[d3/2A3/2][d/A/][dA] [a2A2][gA]|
[fA][d2A2] [d3/2A3/2][d/A/][dA]|[d2c2][dA] [fA][d2A2]|dcA2D2|FA2 [g3c3E3]|
dcd D3|C2[A4D4]|dc/AG3/2FD|FA2 [g3c3E3]|
dcd D3|C2D4|FA[c2E2][c2E2]|dcA GA2|
[d2A2G2][d2A2F2][d2A2D2]|[d2A2F2][c4E4]|DEF [dA]G[dA]|AdB GA2|
DEF GAD|C2[d4A4D4]|

